X:1
T: Dumfries House
C:J. Riddell
R:Jig
Q:180
K:G
M:6/8
L:1/16
D2|G6 G4g2|d2B2G2 G2A2B2|c2G2E2 E2F2G2|A2F2D2 D2E2F2|G6 G4g2|d2B2G2 G2A2B2|c2E2A2 F2E2F2|G6 G4D2|
G6 G4g2|d2B2G2 G2A2B2|c2d2e2 d2c2B2|A2F2D2 D2E2F2|G6 G4g2|d2B2G2 G2A2B2|c2E2A2 F2E2F2|G6 G4Bc|
d2B2d2 d2B2d2|g2a2g2 f4e2|d2B2d2 d2c2B2|A2F2D2 D4Bc|d2B2d2 d2B2d2|g2a2g2 f4e2|d2c2B2 A2G2F2|G6 G4Bc|
d2B2d2 d2B2d2|g2a2g2 f4e2|d2B2d2 d2c2B2|A2F2D2 D4Bc|d2B2d2 e2c2e2|f2d2f2 g2f2e2|d2c2B2 A2g2f2|g2d2B2 G4||
